report_00007_2020-12-11T15:55:29.892Z/total-blocking-time/comparison/sorted/7_vs_8.svg

<svg width="640" height="500" xmlns="http://www.w3.org/2000/svg" xmlns:xlink="http://www.w3.org/1999/xlink"><path fill="#fff" d="M0 0h640v500H0z"/><defs><path id="d" stroke-width=".222" stroke="currentColor" d="M-1-1h2v2h-2z"/><path id="b" stroke-width=".222" stroke="currentColor" d="M0-1.33l-1.33 2h2.66z"/><path id="f" stroke-width=".222" stroke="currentColor" d="M0 1.33L1.265.411.782-1.067l-1.564-.009-.483 1.487z"/><use xlink:href="#b" id="c" stroke="currentColor" transform="rotate(180)"/><use xlink:href="#d" id="e" stroke="currentColor" transform="rotate(45)"/><circle id="a" stroke-width=".222" stroke="currentColor" cx="0" cy="0" r="1"/></defs><g fill="none" color="#000" stroke="currentColor"><path stroke="#000" d="M45.6 420.1h9m560.4 0h-9"/><text transform="translate(37.3 424)" stroke="none" fill="#000" font-family="Arial" font-size="12" text-anchor="end"><tspan>0</tspan></text></g><g fill="none" color="#000" stroke="currentColor"><path stroke="#000" d="M45.6 353.3h9m560.4 0h-9"/><text transform="translate(37.3 357.2)" stroke="none" fill="#000" font-family="Arial" font-size="12" text-anchor="end"><tspan>5</tspan></text></g><g fill="none" color="#000" stroke="currentColor"><path stroke="#000" d="M45.6 286.5h9m560.4 0h-9"/><text transform="translate(37.3 290.4)" stroke="none" fill="#000" font-family="Arial" font-size="12" text-anchor="end"><tspan>10</tspan></text></g><g fill="none" color="#000" stroke="currentColor"><path stroke="#000" d="M45.6 219.7h9m560.4 0h-9"/><text transform="translate(37.3 223.6)" stroke="none" fill="#000" font-family="Arial" font-size="12" text-anchor="end"><tspan>15</tspan></text></g><g fill="none" color="#000" stroke="currentColor"><path stroke="#000" d="M45.6 152.9h9m560.4 0h-9"/><text transform="translate(37.3 156.8)" stroke="none" fill="#000" font-family="Arial" font-size="12" text-anchor="end"><tspan>20</tspan></text></g><g fill="none" color="#000" stroke="currentColor"><path stroke="#000" d="M45.6 86.1h9m560.4 0h-9"/><text transform="translate(37.3 90)" stroke="none" fill="#000" font-family="Arial" font-size="12" text-anchor="end"><tspan>25</tspan></text></g><g fill="none" color="#000" stroke="currentColor"><path stroke="#000" d="M45.6 19.3h9m560.4 0h-9"/><text transform="translate(37.3 23.2)" stroke="none" fill="#000" font-family="Arial" font-size="12" text-anchor="end"><tspan>30</tspan></text></g><g fill="none" color="#000" stroke="currentColor"><path stroke="#000" d="M45.6 428v-9m0-400.9v9"/><text transform="translate(45.6 449.9)" stroke="none" fill="#000" font-family="Arial" font-size="12" text-anchor="middle"><tspan>0</tspan></text></g><g fill="none" color="#000" stroke="currentColor"><path stroke="#000" d="M103.1 428v-9m0-400.9v9"/><text transform="translate(103.1 449.9)" stroke="none" fill="#000" font-family="Arial" font-size="12" text-anchor="middle"><tspan>10</tspan></text></g><g fill="none" color="#000" stroke="currentColor"><path stroke="#000" d="M160.6 428v-9m0-400.9v9"/><text transform="translate(160.6 449.9)" stroke="none" fill="#000" font-family="Arial" font-size="12" text-anchor="middle"><tspan>20</tspan></text></g><g fill="none" color="#000" stroke="currentColor"><path stroke="#000" d="M218.1 428v-9m0-400.9v9"/><text transform="translate(218.1 449.9)" stroke="none" fill="#000" font-family="Arial" font-size="12" text-anchor="middle"><tspan>30</tspan></text></g><g fill="none" color="#000" stroke="currentColor"><path stroke="#000" d="M275.7 428v-9m0-400.9v9"/><text transform="translate(275.7 449.9)" stroke="none" fill="#000" font-family="Arial" font-size="12" text-anchor="middle"><tspan>40</tspan></text></g><g fill="none" color="#000" stroke="currentColor"><path stroke="#000" d="M333.2 428v-9m0-400.9v9"/><text transform="translate(333.2 449.9)" stroke="none" fill="#000" font-family="Arial" font-size="12" text-anchor="middle"><tspan>50</tspan></text></g><g fill="none" color="#000" stroke="currentColor"><path stroke="#000" d="M390.7 428v-9m0-400.9v9"/><text transform="translate(390.7 449.9)" stroke="none" fill="#000" font-family="Arial" font-size="12" text-anchor="middle"><tspan>60</tspan></text></g><g fill="none" color="#000" stroke="currentColor"><path stroke="#000" d="M448.2 428v-9m0-400.9v9"/><text transform="translate(448.2 449.9)" stroke="none" fill="#000" font-family="Arial" font-size="12" text-anchor="middle"><tspan>70</tspan></text></g><g fill="none" color="#000" stroke="currentColor"><path stroke="#000" d="M505.7 428v-9m0-400.9v9"/><text transform="translate(505.7 449.9)" stroke="none" fill="#000" font-family="Arial" font-size="12" text-anchor="middle"><tspan>80</tspan></text></g><g fill="none" color="#000" stroke="currentColor"><path stroke="#000" d="M563.2 428v-9m0-400.9v9"/><text transform="translate(563.2 449.9)" stroke="none" fill="#000" font-family="Arial" font-size="12" text-anchor="middle"><tspan>90</tspan></text></g><path stroke="#000" d="M45.6 18.1V428H615V18.1H45.6z" fill="none" color="#000"/><text transform="translate(271.5 467.9)" stroke="none" fill="#000" font-family="Arial" font-size="12" text-anchor="end" color="#000"><tspan>pages+cached+noexternal+nosvg</tspan></text><path stroke="#9400D3" d="M279.8 464H322M45.6 420.1h563.6L615 26" fill="none" color="#000"/><text transform="translate(271.5 485.9)" stroke="none" fill="#000" font-family="Arial" font-size="12" text-anchor="end" color="#000"><tspan>pages+cached+noexternal+noimg</tspan></text><path stroke="#009E73" d="M279.8 482H322M45.6 420.1H615" fill="none" color="#000"/><text transform="translate(571 467.9)" stroke="none" fill="#000" font-family="Arial" font-size="12" text-anchor="end" color="#000"><tspan>score p10=287</tspan></text><path stroke="#56B4E9" d="M579.3 464h42.2" fill="none" color="#000"/><g><text transform="translate(571 485.9)" stroke="none" fill="#000" font-family="Arial" font-size="12" text-anchor="end" color="#000"><tspan>score median=600</tspan></text><path stroke="#E69F00" d="M579.3 482h42.2" fill="none" color="#000"/></g><g fill="none" color="#000" stroke="currentColor"><path stroke="#000" d="M45.6 18.1V428H615V18.1H45.6z"/></g></svg>

<?xml version="1.0" encoding="utf-8"  standalone="no"?>
<svg 
 width="640" height="500"
 viewBox="0 0 640 500"
 xmlns="http://www.w3.org/2000/svg"
 xmlns:xlink="http://www.w3.org/1999/xlink"
>

<title>Gnuplot</title>
<desc>Produced by GNUPLOT 5.4 patchlevel 0 </desc>

<g id="gnuplot_canvas">

<rect x="0" y="0" width="640" height="500" fill="#ffffff"/>
<defs>

	<circle id='gpDot' r='0.5' stroke-width='0.5' stroke='currentColor'/>
	<path id='gpPt0' stroke-width='0.222' stroke='currentColor' d='M-1,0 h2 M0,-1 v2'/>
	<path id='gpPt1' stroke-width='0.222' stroke='currentColor' d='M-1,-1 L1,1 M1,-1 L-1,1'/>
	<path id='gpPt2' stroke-width='0.222' stroke='currentColor' d='M-1,0 L1,0 M0,-1 L0,1 M-1,-1 L1,1 M-1,1 L1,-1'/>
	<rect id='gpPt3' stroke-width='0.222' stroke='currentColor' x='-1' y='-1' width='2' height='2'/>
	<rect id='gpPt4' stroke-width='0.222' stroke='currentColor' fill='currentColor' x='-1' y='-1' width='2' height='2'/>
	<circle id='gpPt5' stroke-width='0.222' stroke='currentColor' cx='0' cy='0' r='1'/>
	<use xlink:href='#gpPt5' id='gpPt6' fill='currentColor' stroke='none'/>
	<path id='gpPt7' stroke-width='0.222' stroke='currentColor' d='M0,-1.33 L-1.33,0.67 L1.33,0.67 z'/>
	<use xlink:href='#gpPt7' id='gpPt8' fill='currentColor' stroke='none'/>
	<use xlink:href='#gpPt7' id='gpPt9' stroke='currentColor' transform='rotate(180)'/>
	<use xlink:href='#gpPt9' id='gpPt10' fill='currentColor' stroke='none'/>
	<use xlink:href='#gpPt3' id='gpPt11' stroke='currentColor' transform='rotate(45)'/>
	<use xlink:href='#gpPt11' id='gpPt12' fill='currentColor' stroke='none'/>
	<path id='gpPt13' stroke-width='0.222' stroke='currentColor' d='M0,1.330 L1.265,0.411 L0.782,-1.067 L-0.782,-1.076 L-1.265,0.411 z'/>
	<use xlink:href='#gpPt13' id='gpPt14' fill='currentColor' stroke='none'/>
	<filter id='textbox' filterUnits='objectBoundingBox' x='0' y='0' height='1' width='1'>
	  <feFlood flood-color='#FFFFFF' flood-opacity='1' result='bgnd'/>
	  <feComposite in='SourceGraphic' in2='bgnd' operator='atop'/>
	</filter>
	<filter id='greybox' filterUnits='objectBoundingBox' x='0' y='0' height='1' width='1'>
	  <feFlood flood-color='lightgrey' flood-opacity='1' result='grey'/>
	  <feComposite in='SourceGraphic' in2='grey' operator='atop'/>
	</filter>
</defs>
<g fill="none" color="#FFFFFF" stroke="black" stroke-width="1.00" stroke-linecap="butt" stroke-linejoin="miter">
</g>
<g fill="none" color="black" stroke="currentColor" stroke-width="1.00" stroke-linecap="butt" stroke-linejoin="miter">
	<path stroke='black'  d='M45.6,420.1 L54.6,420.1 M615.0,420.1 L606.0,420.1  '/>	<g transform="translate(37.3,424.0)" stroke="none" fill="black" font-family="Arial" font-size="12.00"  text-anchor="end">
		<text><tspan font-family="Arial" > 0</tspan></text>
	</g>
</g>
<g fill="none" color="black" stroke="currentColor" stroke-width="1.00" stroke-linecap="butt" stroke-linejoin="miter">
	<path stroke='black'  d='M45.6,353.3 L54.6,353.3 M615.0,353.3 L606.0,353.3  '/>	<g transform="translate(37.3,357.2)" stroke="none" fill="black" font-family="Arial" font-size="12.00"  text-anchor="end">
		<text><tspan font-family="Arial" > 5</tspan></text>
	</g>
</g>
<g fill="none" color="black" stroke="currentColor" stroke-width="1.00" stroke-linecap="butt" stroke-linejoin="miter">
	<path stroke='black'  d='M45.6,286.5 L54.6,286.5 M615.0,286.5 L606.0,286.5  '/>	<g transform="translate(37.3,290.4)" stroke="none" fill="black" font-family="Arial" font-size="12.00"  text-anchor="end">
		<text><tspan font-family="Arial" > 10</tspan></text>
	</g>
</g>
<g fill="none" color="black" stroke="currentColor" stroke-width="1.00" stroke-linecap="butt" stroke-linejoin="miter">
	<path stroke='black'  d='M45.6,219.7 L54.6,219.7 M615.0,219.7 L606.0,219.7  '/>	<g transform="translate(37.3,223.6)" stroke="none" fill="black" font-family="Arial" font-size="12.00"  text-anchor="end">
		<text><tspan font-family="Arial" > 15</tspan></text>
	</g>
</g>
<g fill="none" color="black" stroke="currentColor" stroke-width="1.00" stroke-linecap="butt" stroke-linejoin="miter">
	<path stroke='black'  d='M45.6,152.9 L54.6,152.9 M615.0,152.9 L606.0,152.9  '/>	<g transform="translate(37.3,156.8)" stroke="none" fill="black" font-family="Arial" font-size="12.00"  text-anchor="end">
		<text><tspan font-family="Arial" > 20</tspan></text>
	</g>
</g>
<g fill="none" color="black" stroke="currentColor" stroke-width="1.00" stroke-linecap="butt" stroke-linejoin="miter">
	<path stroke='black'  d='M45.6,86.1 L54.6,86.1 M615.0,86.1 L606.0,86.1  '/>	<g transform="translate(37.3,90.0)" stroke="none" fill="black" font-family="Arial" font-size="12.00"  text-anchor="end">
		<text><tspan font-family="Arial" > 25</tspan></text>
	</g>
</g>
<g fill="none" color="black" stroke="currentColor" stroke-width="1.00" stroke-linecap="butt" stroke-linejoin="miter">
	<path stroke='black'  d='M45.6,19.3 L54.6,19.3 M615.0,19.3 L606.0,19.3  '/>	<g transform="translate(37.3,23.2)" stroke="none" fill="black" font-family="Arial" font-size="12.00"  text-anchor="end">
		<text><tspan font-family="Arial" > 30</tspan></text>
	</g>
</g>
<g fill="none" color="black" stroke="currentColor" stroke-width="1.00" stroke-linecap="butt" stroke-linejoin="miter">
	<path stroke='black'  d='M45.6,428.0 L45.6,419.0 M45.6,18.1 L45.6,27.1  '/>	<g transform="translate(45.6,449.9)" stroke="none" fill="black" font-family="Arial" font-size="12.00"  text-anchor="middle">
		<text><tspan font-family="Arial" > 0</tspan></text>
	</g>
</g>
<g fill="none" color="black" stroke="currentColor" stroke-width="1.00" stroke-linecap="butt" stroke-linejoin="miter">
	<path stroke='black'  d='M103.1,428.0 L103.1,419.0 M103.1,18.1 L103.1,27.1  '/>	<g transform="translate(103.1,449.9)" stroke="none" fill="black" font-family="Arial" font-size="12.00"  text-anchor="middle">
		<text><tspan font-family="Arial" > 10</tspan></text>
	</g>
</g>
<g fill="none" color="black" stroke="currentColor" stroke-width="1.00" stroke-linecap="butt" stroke-linejoin="miter">
	<path stroke='black'  d='M160.6,428.0 L160.6,419.0 M160.6,18.1 L160.6,27.1  '/>	<g transform="translate(160.6,449.9)" stroke="none" fill="black" font-family="Arial" font-size="12.00"  text-anchor="middle">
		<text><tspan font-family="Arial" > 20</tspan></text>
	</g>
</g>
<g fill="none" color="black" stroke="currentColor" stroke-width="1.00" stroke-linecap="butt" stroke-linejoin="miter">
	<path stroke='black'  d='M218.1,428.0 L218.1,419.0 M218.1,18.1 L218.1,27.1  '/>	<g transform="translate(218.1,449.9)" stroke="none" fill="black" font-family="Arial" font-size="12.00"  text-anchor="middle">
		<text><tspan font-family="Arial" > 30</tspan></text>
	</g>
</g>
<g fill="none" color="black" stroke="currentColor" stroke-width="1.00" stroke-linecap="butt" stroke-linejoin="miter">
	<path stroke='black'  d='M275.7,428.0 L275.7,419.0 M275.7,18.1 L275.7,27.1  '/>	<g transform="translate(275.7,449.9)" stroke="none" fill="black" font-family="Arial" font-size="12.00"  text-anchor="middle">
		<text><tspan font-family="Arial" > 40</tspan></text>
	</g>
</g>
<g fill="none" color="black" stroke="currentColor" stroke-width="1.00" stroke-linecap="butt" stroke-linejoin="miter">
	<path stroke='black'  d='M333.2,428.0 L333.2,419.0 M333.2,18.1 L333.2,27.1  '/>	<g transform="translate(333.2,449.9)" stroke="none" fill="black" font-family="Arial" font-size="12.00"  text-anchor="middle">
		<text><tspan font-family="Arial" > 50</tspan></text>
	</g>
</g>
<g fill="none" color="black" stroke="currentColor" stroke-width="1.00" stroke-linecap="butt" stroke-linejoin="miter">
	<path stroke='black'  d='M390.7,428.0 L390.7,419.0 M390.7,18.1 L390.7,27.1  '/>	<g transform="translate(390.7,449.9)" stroke="none" fill="black" font-family="Arial" font-size="12.00"  text-anchor="middle">
		<text><tspan font-family="Arial" > 60</tspan></text>
	</g>
</g>
<g fill="none" color="black" stroke="currentColor" stroke-width="1.00" stroke-linecap="butt" stroke-linejoin="miter">
	<path stroke='black'  d='M448.2,428.0 L448.2,419.0 M448.2,18.1 L448.2,27.1  '/>	<g transform="translate(448.2,449.9)" stroke="none" fill="black" font-family="Arial" font-size="12.00"  text-anchor="middle">
		<text><tspan font-family="Arial" > 70</tspan></text>
	</g>
</g>
<g fill="none" color="black" stroke="currentColor" stroke-width="1.00" stroke-linecap="butt" stroke-linejoin="miter">
	<path stroke='black'  d='M505.7,428.0 L505.7,419.0 M505.7,18.1 L505.7,27.1  '/>	<g transform="translate(505.7,449.9)" stroke="none" fill="black" font-family="Arial" font-size="12.00"  text-anchor="middle">
		<text><tspan font-family="Arial" > 80</tspan></text>
	</g>
</g>
<g fill="none" color="black" stroke="currentColor" stroke-width="1.00" stroke-linecap="butt" stroke-linejoin="miter">
	<path stroke='black'  d='M563.2,428.0 L563.2,419.0 M563.2,18.1 L563.2,27.1  '/>	<g transform="translate(563.2,449.9)" stroke="none" fill="black" font-family="Arial" font-size="12.00"  text-anchor="middle">
		<text><tspan font-family="Arial" > 90</tspan></text>
	</g>
</g>
<g fill="none" color="black" stroke="currentColor" stroke-width="1.00" stroke-linecap="butt" stroke-linejoin="miter">
</g>
<g fill="none" color="black" stroke="currentColor" stroke-width="1.00" stroke-linecap="butt" stroke-linejoin="miter">
	<path stroke='black'  d='M45.6,18.1 L45.6,428.0 L615.0,428.0 L615.0,18.1 L45.6,18.1 Z  '/></g>
<g fill="none" color="black" stroke="currentColor" stroke-width="1.00" stroke-linecap="butt" stroke-linejoin="miter">
</g>
	<g id="gnuplot_plot_1" ><title>pages+cached+noexternal+nosvg</title>
<g fill="none" color="black" stroke="currentColor" stroke-width="1.00" stroke-linecap="butt" stroke-linejoin="miter">
	<g transform="translate(271.5,467.9)" stroke="none" fill="black" font-family="Arial" font-size="12.00"  text-anchor="end">
		<text><tspan font-family="Arial" >pages+cached+noexternal+nosvg</tspan></text>
	</g>
</g>
<g fill="none" color="black" stroke="currentColor" stroke-width="1.00" stroke-linecap="butt" stroke-linejoin="miter">
	<path stroke='rgb(148,   0, 211)'  d='M279.8,464.0 L322.0,464.0 M45.6,420.1 L51.4,420.1 L57.1,420.1 L62.9,420.1 L68.6,420.1 L74.4,420.1
		L80.1,420.1 L85.9,420.1 L91.6,420.1 L97.4,420.1 L103.1,420.1 L108.9,420.1 L114.6,420.1 L120.4,420.1
		L126.1,420.1 L131.9,420.1 L137.6,420.1 L143.4,420.1 L149.1,420.1 L154.9,420.1 L160.6,420.1 L166.4,420.1
		L172.1,420.1 L177.9,420.1 L183.6,420.1 L189.4,420.1 L195.1,420.1 L200.9,420.1 L206.6,420.1 L212.4,420.1
		L218.1,420.1 L223.9,420.1 L229.6,420.1 L235.4,420.1 L241.2,420.1 L246.9,420.1 L252.7,420.1 L258.4,420.1
		L264.2,420.1 L269.9,420.1 L275.7,420.1 L281.4,420.1 L287.2,420.1 L292.9,420.1 L298.7,420.1 L304.4,420.1
		L310.2,420.1 L315.9,420.1 L321.7,420.1 L327.4,420.1 L333.2,420.1 L338.9,420.1 L344.7,420.1 L350.4,420.1
		L356.2,420.1 L361.9,420.1 L367.7,420.1 L373.4,420.1 L379.2,420.1 L384.9,420.1 L390.7,420.1 L396.4,420.1
		L402.2,420.1 L407.9,420.1 L413.7,420.1 L419.4,420.1 L425.2,420.1 L431.0,420.1 L436.7,420.1 L442.5,420.1
		L448.2,420.1 L454.0,420.1 L459.7,420.1 L465.5,420.1 L471.2,420.1 L477.0,420.1 L482.7,420.1 L488.5,420.1
		L494.2,420.1 L500.0,420.1 L505.7,420.1 L511.5,420.1 L517.2,420.1 L523.0,420.1 L528.7,420.1 L534.5,420.1
		L540.2,420.1 L546.0,420.1 L551.7,420.1 L557.5,420.1 L563.2,420.1 L569.0,420.1 L574.7,420.1 L580.5,420.1
		L586.2,420.1 L592.0,420.1 L597.7,420.1 L603.5,420.1 L609.2,420.1 L615.0,26.0  '/></g>
	</g>
	<g id="gnuplot_plot_2" ><title>pages+cached+noexternal+noimg</title>
<g fill="none" color="black" stroke="currentColor" stroke-width="1.00" stroke-linecap="butt" stroke-linejoin="miter">
	<g transform="translate(271.5,485.9)" stroke="none" fill="black" font-family="Arial" font-size="12.00"  text-anchor="end">
		<text><tspan font-family="Arial" >pages+cached+noexternal+noimg</tspan></text>
	</g>
</g>
<g fill="none" color="black" stroke="currentColor" stroke-width="1.00" stroke-linecap="butt" stroke-linejoin="miter">
	<path stroke='rgb(  0, 158, 115)'  d='M279.8,482.0 L322.0,482.0 M45.6,420.1 L51.4,420.1 L57.1,420.1 L62.9,420.1 L68.6,420.1 L74.4,420.1
		L80.1,420.1 L85.9,420.1 L91.6,420.1 L97.4,420.1 L103.1,420.1 L108.9,420.1 L114.6,420.1 L120.4,420.1
		L126.1,420.1 L131.9,420.1 L137.6,420.1 L143.4,420.1 L149.1,420.1 L154.9,420.1 L160.6,420.1 L166.4,420.1
		L172.1,420.1 L177.9,420.1 L183.6,420.1 L189.4,420.1 L195.1,420.1 L200.9,420.1 L206.6,420.1 L212.4,420.1
		L218.1,420.1 L223.9,420.1 L229.6,420.1 L235.4,420.1 L241.2,420.1 L246.9,420.1 L252.7,420.1 L258.4,420.1
		L264.2,420.1 L269.9,420.1 L275.7,420.1 L281.4,420.1 L287.2,420.1 L292.9,420.1 L298.7,420.1 L304.4,420.1
		L310.2,420.1 L315.9,420.1 L321.7,420.1 L327.4,420.1 L333.2,420.1 L338.9,420.1 L344.7,420.1 L350.4,420.1
		L356.2,420.1 L361.9,420.1 L367.7,420.1 L373.4,420.1 L379.2,420.1 L384.9,420.1 L390.7,420.1 L396.4,420.1
		L402.2,420.1 L407.9,420.1 L413.7,420.1 L419.4,420.1 L425.2,420.1 L431.0,420.1 L436.7,420.1 L442.5,420.1
		L448.2,420.1 L454.0,420.1 L459.7,420.1 L465.5,420.1 L471.2,420.1 L477.0,420.1 L482.7,420.1 L488.5,420.1
		L494.2,420.1 L500.0,420.1 L505.7,420.1 L511.5,420.1 L517.2,420.1 L523.0,420.1 L528.7,420.1 L534.5,420.1
		L540.2,420.1 L546.0,420.1 L551.7,420.1 L557.5,420.1 L563.2,420.1 L569.0,420.1 L574.7,420.1 L580.5,420.1
		L586.2,420.1 L592.0,420.1 L597.7,420.1 L603.5,420.1 L609.2,420.1 L615.0,420.1  '/></g>
	</g>
	<g id="gnuplot_plot_3" ><title>score p10=287</title>
<g fill="none" color="black" stroke="currentColor" stroke-width="1.00" stroke-linecap="butt" stroke-linejoin="miter">
	<g transform="translate(571.0,467.9)" stroke="none" fill="black" font-family="Arial" font-size="12.00"  text-anchor="end">
		<text><tspan font-family="Arial" >score p10=287</tspan></text>
	</g>
</g>
<g fill="none" color="black" stroke="currentColor" stroke-width="1.00" stroke-linecap="butt" stroke-linejoin="miter">
	<path stroke='rgb( 86, 180, 233)'  d='M579.3,464.0 L621.5,464.0  '/></g>
	</g>
	<g id="gnuplot_plot_4" ><title>score median=600</title>
<g fill="none" color="black" stroke="currentColor" stroke-width="1.00" stroke-linecap="butt" stroke-linejoin="miter">
	<g transform="translate(571.0,485.9)" stroke="none" fill="black" font-family="Arial" font-size="12.00"  text-anchor="end">
		<text><tspan font-family="Arial" >score median=600</tspan></text>
	</g>
</g>
<g fill="none" color="black" stroke="currentColor" stroke-width="1.00" stroke-linecap="butt" stroke-linejoin="miter">
	<path stroke='rgb(230, 159,   0)'  d='M579.3,482.0 L621.5,482.0  '/></g>
	</g>
<g fill="none" color="#FFFFFF" stroke="rgb(230, 159,   0)" stroke-width="2.00" stroke-linecap="butt" stroke-linejoin="miter">
</g>
<g fill="none" color="black" stroke="currentColor" stroke-width="2.00" stroke-linecap="butt" stroke-linejoin="miter">
</g>
<g fill="none" color="black" stroke="black" stroke-width="1.00" stroke-linecap="butt" stroke-linejoin="miter">
</g>
<g fill="none" color="black" stroke="currentColor" stroke-width="1.00" stroke-linecap="butt" stroke-linejoin="miter">
	<path stroke='black'  d='M45.6,18.1 L45.6,428.0 L615.0,428.0 L615.0,18.1 L45.6,18.1 Z  '/></g>
<g fill="none" color="black" stroke="currentColor" stroke-width="1.00" stroke-linecap="butt" stroke-linejoin="miter">
</g>
</g>
</svg>
